X: 1
T: Angus MacLeod
C: Andrew Rankine
R: march
Z: 2005 John Chambers <jc:trillian.mit.edu>
N: From handwritten MS by Barbara McOwen
M: C|
L: 1/4
K: G
d \
|: "G"G2 G>A | "G"Bd B2 | "G"G2 G>A | "G"Bd "D7"c2 | "Am"A2 A>B | "Am"ce c2 | "D7"f>e dc | "D7"BA "G"G2 :|
|: "C"g2 g>f | "C"ed "G"B2 | "G"d2 d>e | "G"dB "D7"A2 | "G"G2 G>A | "G"BG "C"c2 | "D7"f>e dc | "D7"BA "G7"G2 :|

%%sep 1 1 500

